!!!OTL: Vom juengsten Tag
!!!ARE: Europa, Mitteleuropa, Deutschland
!!!SCT: A0657
!!!YEM: Copyright 1995, estate of Helmut Schaffrath.
**kern
*ICvox
*Ivox
*M4/1
*k[]
*a:
{1a
=1
1a
1a
1ccn
1a
=2
1fn
1a
1fn
2r}
{2a
=3
1a
1a
1ccn
1a
=4
1fn
1a
1fn
2r}
{2fn
=5
1b-
1a
1gn
1b-
=6
1a
1fn
1d
2r}
{2a
=7
1b-
1a
1gn
1b-
=8
1a
1fn
1d
2r}
{2b-
=9
1a
1gn
1fn
1d
=10
2fn
2fn
2gn
2gn
1a}
==
!!!AGN: Romanze, Ballade, Lied, religioeses Lied
!! J. Walther Gsgb 1551
!!!ONB: ESAC (Essen Associative Code) Database: ALTDEU
!!!AMT: simple quadruple
!!!AIN: vox
!!!EED: Helmut Schaffrath
!!!EEV: 1.0
*-
